dist/img/services-item-1.svg

<svg width="90" height="90" viewBox="0 0 90 90" fill="none" xmlns="http://www.w3.org/2000/svg">
<g clip-path="url(#clip0_21_533)">
<mask id="mask0_21_533" style="mask-type:luminance" maskUnits="userSpaceOnUse" x="0" y="0" width="90" height="90">
<path d="M0 7.62939e-06H90V90H0V7.62939e-06Z" fill="white"/>
</mask>
<g mask="url(#mask0_21_533)">
<path d="M17.0606 72.9394L1.31831 88.6816" stroke="#0779FF" stroke-width="2" stroke-miterlimit="10" stroke-linecap="round" stroke-linejoin="round"/>
<path d="M87.9093 17.0061L72.9938 2.0905C71.9642 1.06094 70.2946 1.06094 69.2649 2.0905C68.2352 3.12022 68.2352 4.78962 69.2649 5.81934L84.1805 20.7349C85.2102 21.7646 86.8798 21.7646 87.9093 20.7349C88.939 19.7052 88.939 18.0358 87.9093 17.0061Z" stroke="#0779FF" stroke-width="2" stroke-miterlimit="10" stroke-linecap="round" stroke-linejoin="round"/>
<path d="M25.4506 58.956L15.1962 71.0749L18.9251 74.8037L31.0439 64.5493" stroke="#0779FF" stroke-width="2" stroke-miterlimit="10" stroke-linecap="round" stroke-linejoin="round"/>
<path d="M39.4339 39.3794L50.6206 50.5662" stroke="#0779FF" stroke-width="2" stroke-miterlimit="10" stroke-linecap="round" stroke-linejoin="round"/>
<path d="M69.2649 31.9216L35.7049 65.4816C34.6752 66.5112 33.0058 66.5112 31.9761 65.4816L24.5182 58.0238C23.4887 56.994 23.4887 55.3246 24.5182 54.2949L58.0782 20.7349" stroke="#0779FF" stroke-width="2" stroke-miterlimit="10" stroke-linecap="round" stroke-linejoin="round"/>
<path d="M46.8916 31.9217L58.0783 43.1084" stroke="#0779FF" stroke-width="2" stroke-miterlimit="10" stroke-linecap="round" stroke-linejoin="round"/>
<path d="M43.1628 35.6504L54.3495 46.8372" stroke="#0779FF" stroke-width="2" stroke-miterlimit="10" stroke-linecap="round" stroke-linejoin="round"/>
<path d="M80.4516 17.006L71.1294 26.3282" stroke="#0779FF" stroke-width="2" stroke-miterlimit="10" stroke-linecap="round" stroke-linejoin="round"/>
<path d="M76.7227 13.2773L67.4005 22.5995" stroke="#0779FF" stroke-width="2" stroke-miterlimit="10" stroke-linecap="round" stroke-linejoin="round"/>
<path d="M67.4005 15.1417L72.9939 9.54836" stroke="#0779FF" stroke-width="2" stroke-miterlimit="10" stroke-linecap="round" stroke-linejoin="round"/>
<path d="M78.5872 33.7861L56.2139 11.4128C55.1842 10.3831 53.5146 10.3831 52.4849 11.4128C51.4552 12.4426 51.4552 14.112 52.4849 15.1417L74.8583 37.5149C75.888 38.5447 77.5574 38.5447 78.5872 37.5149C79.6169 36.4852 79.6169 34.8158 78.5872 33.7861Z" stroke="#0779FF" stroke-width="2" stroke-miterlimit="10" stroke-linecap="round" stroke-linejoin="round"/>
</g>
</g>
<defs>
<clipPath id="clip0_21_533">
<rect width="90" height="90" fill="white"/>
</clipPath>
</defs>
</svg>

<svg width="90" height="90" fill="none" xmlns="http://www.w3.org/2000/svg"><g clip-path="url(#a)"><mask id="b" style="mask-type:luminance" maskUnits="userSpaceOnUse" x="0" y="0" width="90" height="90"><path d="M0 0h90v90H0V0Z" fill="#fff"/></mask><g mask="url(#b)" stroke="#0779FF" stroke-width="2" stroke-miterlimit="10" stroke-linecap="round" stroke-linejoin="round"><path d="M17.06 72.94 1.319 88.681M87.91 17.006 72.993 2.091a2.637 2.637 0 0 0-3.73 3.728L84.18 20.735a2.637 2.637 0 1 0 3.73-3.729Zm-62.46 41.95L15.197 71.075l3.73 3.729 12.118-10.255m8.389-25.169L50.62 50.565"/><path d="m69.265 31.922-33.56 33.56a2.637 2.637 0 0 1-3.729 0l-7.458-7.458a2.637 2.637 0 0 1 0-3.73l33.56-33.56M46.892 31.922l11.186 11.186M43.163 35.65 54.35 46.837m26.102-29.831-9.323 9.322m5.594-13.051L67.4 22.6m0-7.458 5.594-5.594"/><path d="M78.587 33.786 56.214 11.413a2.637 2.637 0 0 0-3.73 3.729l22.374 22.373a2.637 2.637 0 1 0 3.73-3.729Z"/></g></g><defs><clipPath id="a"><path fill="#fff" d="M0 0h90v90H0z"/></clipPath></defs></svg>
